X: 369
T:Killarney Boys of Pleasure
R:reel
H:Played in Edor or Ador
D:Fintan Vallely:
Z:id:hn-reel-348
Z:posted to list by bil
M:C|
K:Edor
E2FD E2FA|(3Bcd AF DEFA|~B3d e2ed|(3Bcd AF DEFD|
E2FD E2FA|(3Bcd AF DEFA|~B3d efed|1 (3Bcd AF FEED:|2 (3Bcd AF FEE2||
|:Be~e2 Befd|(3Bcd AF DEFA|dffe fgfe|dBAF DEFA|
Be~e2 Befd|(3Bcd AF DEFA|dffe fgfe|1 dBAF FE~E2:|2 dBAF FEED||
"Variations:"
|:E2ED E2FA|BFAF DEFA|BA (3Bcd efed|BdAF DEFD|
E2ED E2FA|BFAF DEFA|BA (3Bcd e2ed|1 BdAF FEED:|2 BdAF FE~E2||
|:Be~e2 fded|BdAF DEFA|~f3e defe|dBAF DEFA|
Be~e2 fded|BdAF DEFA|~f3e defe|1 dBAF FE~E2:|2 dBAF FEED||
K:Ador
A2BG A2Bd|egdB GABd|~e3g ~a3g|egdB GABG|
A2BG A2Bd|eBdB GABd|~e3g abag|1 (3efg dB BAAG:|2 (3efg dB BA~A2||
|:ea~a2 bgag|egdB GABd|~b3z bc'ba|gedB GABd|
ea~a2 bgag|egdB GABd|~b3a bc'ba|1 gedB BA~A2:|2 gedB BAAG||
<end>
<start>
